X:540
T: DES LEBENS TAG IST SCHWER UND SCHWUEL
N: F1048
O: Europa, Mitteleuropa, Deutschland
R: Trost - Lied, Tod
M: 4/4
L: 1/16
K: E
E4 | B4G4E4G4 | B4G4E4
B4 | e4e4d4G4 | A3Bc2c2B4
B4 | B6A2G2e2d2c2 | B6A2G4
G4 | F4G4A4G4 | F8-F2A2G2F2 | E4z8

@@@ Tune index: 5971
